icon/lg/meteor-icon.svg

<?xml version="1.0" encoding="UTF-8" standalone="no"?>
<svg viewBox="0 0 256 251" version="1.1" xmlns="http://www.w3.org/2000/svg" xmlns:xlink="http://www.w3.org/1999/xlink" preserveAspectRatio="xMidYMid" height="1em" width="1em">
  <g fill="#DF4F4F">
    <g>
      <path d="M0.438600784,0.438237494 L219.300393,232.265872 C219.300393,232.265872 226.756606,237.524722 232.458417,231.389397 C238.160226,225.254072 233.774219,219.118747 233.774219,219.118747 L0.438600784,0.438237494 L0.438600784,0.438237494 Z"/>
      <path d="M69.7375247,22.3501121 L236.405823,202.027485 C236.405823,202.027485 243.862037,207.286334 249.563847,201.151009 C255.265657,195.015685 250.87965,188.88036 250.87965,188.88036 L69.7375247,22.3501121 L69.7375247,22.3501121 Z"/>
      <path d="M21.0528376,69.2415241 L187.721136,248.918896 C187.721136,248.918896 195.17735,254.177746 200.87916,248.042422 C206.58097,241.907097 202.194962,235.771771 202.194962,235.771771 L21.0528376,69.2415241 L21.0528376,69.2415241 Z"/>
      <path d="M128.320766,41.1943244 L244.761955,166.724176 C244.761955,166.724176 249.971166,170.398221 253.95468,166.111835 C257.938195,161.825451 254.873952,157.539065 254.873952,157.539065 L128.320766,41.1943244 L128.320766,41.1943244 Z"/>
      <path d="M37.0918028,123.582973 L153.532991,249.112825 C153.532991,249.112825 158.742203,252.78687 162.725716,248.500484 C166.709231,244.214099 163.644989,239.927714 163.644989,239.927714 L37.0918028,123.582973 L37.0918028,123.582973 Z"/>
      <path d="M188.159737,68.3650492 L240.934804,125.432206 C240.934804,125.432206 243.511631,127.153769 245.482147,125.145278 C247.452662,123.136787 245.936881,121.128295 245.936881,121.128295 L188.159737,68.3650492 L188.159737,68.3650492 Z"/>
      <path d="M66.2287188,181.430322 L119.003786,238.497479 C119.003786,238.497479 121.580613,240.219043 123.551129,238.210552 C125.521643,236.20206 124.005863,234.193569 124.005863,234.193569 L66.2287188,181.430322 L66.2287188,181.430322 Z"/>
    </g>
  </g>
</svg>

<svg width="256" height="251" xmlns="http://www.w3.org/2000/svg" preserveAspectRatio="xMidYMid"><g fill="#DF4F4F"><path d="M.439.438 219.3 232.266s7.457 5.259 13.158-.877c5.702-6.135 1.316-12.27 1.316-12.27L.44.439ZM69.738 22.35l166.668 179.677s7.456 5.26 13.158-.876c5.702-6.135 1.316-12.27 1.316-12.27L69.738 22.35ZM21.053 69.242 187.72 248.919s7.456 5.259 13.158-.877c5.702-6.135 1.316-12.27 1.316-12.27L21.053 69.242ZM128.32 41.194l116.442 125.53s5.21 3.674 9.193-.612c3.983-4.287.919-8.573.919-8.573L128.321 41.194ZM37.092 123.583l116.441 125.53s5.21 3.674 9.193-.613c3.983-4.286.919-8.572.919-8.572L37.092 123.583ZM188.16 68.365l52.775 57.067s2.577 1.722 4.547-.287c1.97-2.008.455-4.017.455-4.017L188.16 68.365ZM66.229 181.43l52.775 57.067s2.577 1.722 4.547-.286c1.97-2.009.455-4.017.455-4.017L66.229 181.43Z"/></g></svg>
